X:578
T:Tongadale Reel, The
C:Joe Buchanan's Scottish Tome - Page 157.2
I:157 2
C:Farquhar MacDonald
Z:Carl Allison
R:Reel
L:1/16
M:2/4
K:C
AB | "Am"cBcB AEAB | "Am"cBcB "F"AFAc | "G"BGDG EDEG | "G"DEGA "Em"BGG/G/G |
"Am"cBcB AEAB | "Am"cBcB "F"AFAc | "G"BGDG EDDd | "G7"dBcB A2AB |
"Am"cBcB AEAB | "Am"cBcB "F"AFAc | "G"BGDG EDEG | "G"DEGA "Em"BGG/G/G |
"Am"cBcB AEAB | "Am"cBcB "F"AFAc | "G"BGDG "Em"EDEG | "Bm"EDCB, "Am"A,4 |]
A,B, | "Am"CA,EA, GA,EA, | "Am"GA,EA, "F"FEDC | "G"B,G,DG, EG,DG, | "G"FG,EG, "Em"DCA,B, |
"Am"CA,EA, GA,EA, | "Am"GA,EA, "F"FEDC | "G"B,G,DG, EDCB, | CA,A,G, A,4 :|

